X:1
T:The Day Returns
M:4/4
L:1/8
K:D
 z4 z2d-B| A2 F2 F2E-D| B2 E2 E2d-B| A2 F2G-FE-D| A,2 D2 D2d-B| A2 F2 F2E-D|\
 B2 E2 E2 D3/2- E/2| F2d-BA-FE-D| A,2 D2 D2A-B| d2 d2 f2e-d| B2 e2 e2d-B|\
A-Bd-e f2e-d| A2 d2 d2 A2| G2B-G F2A-F| B,2 E2 E2d-B|B-AF-BA-FE-D|\
 A,2 D2 D2 z2|
